findly-builder/apps/searchassist/src/assets/icons/play.svg

<svg width="15" height="14" viewBox="0 0 15 14" fill="none" xmlns="http://www.w3.org/2000/svg">
<path d="M1.5 0C0.677469 0 0 0.677469 0 1.5V9.5C0 10.3225 0.677469 11 1.5 11H7V10H1.5C1.21853 10 1 9.78147 1 9.5V3H13V7H14V1.5C14 0.677469 13.3225 0 12.5 0H1.5ZM1.5 1H12.5C12.7815 1 13 1.21853 13 1.5V2H1V1.5C1 1.21853 1.21853 1 1.5 1ZM3 5V6H4V5H3ZM5 5V6H7V5H5ZM8.46484 6C8.33843 6.00892 8.22011 6.06551 8.13382 6.15833C8.04753 6.25115 7.9997 6.37327 8 6.5V13.5C7.99991 13.5878 8.02295 13.6741 8.0668 13.7502C8.11064 13.8263 8.17375 13.8895 8.24977 13.9334C8.32579 13.9774 8.41205 14.0005 8.49986 14.0005C8.58767 14.0006 8.67395 13.9775 8.75 13.9336L14.75 10.459C14.8256 10.4153 14.8883 10.3525 14.9321 10.277C14.9759 10.2014 14.9992 10.1158 14.9995 10.0285C14.9999 9.94116 14.9775 9.85528 14.9344 9.77936C14.8913 9.70344 14.8291 9.64012 14.7539 9.5957L8.75391 6.06836C8.68148 6.02593 8.59953 6.00243 8.51562 6C8.49871 5.99914 8.48176 5.99914 8.46484 6ZM3 7V8H4V7H3ZM5 7V8H7V7H5ZM9 7.375L13.5059 10.0234L9 12.6328V7.375Z" fill="black"/>
</svg>

<svg width="15" height="14" fill="none" xmlns="http://www.w3.org/2000/svg"><path d="M1.5 0C.677 0 0 .677 0 1.5v8c0 .822.677 1.5 1.5 1.5H7v-1H1.5a.493.493 0 0 1-.5-.5V3h12v4h1V1.5c0-.823-.678-1.5-1.5-1.5h-11Zm0 1h11c.281 0 .5.219.5.5V2H1v-.5c0-.281.219-.5.5-.5ZM3 5v1h1V5H3Zm2 0v1h2V5H5Zm3.465 1A.5.5 0 0 0 8 6.5v7a.5.5 0 0 0 .75.434l6-3.475a.5.5 0 0 0 .004-.863l-6-3.528A.5.5 0 0 0 8.464 6ZM3 7v1h1V7H3Zm2 0v1h2V7H5Zm4 .375 4.506 2.648L9 12.633V7.375Z" fill="#000"/></svg>
